X:11008
T:King of the Fairies, The
R:Hornpipe
C:Trad.
O:Ireland
M:4/4
L:1/8
Q:1/4=120
K:ADor
E2|"Am"AGAB cBcd|e=fed cBcd|e2 A2 AB cA|"Em"BcBA G2 E2|
"Am"AGAB cBcd|edce "Em"g3 =f|"Am"e2 A2 cBAG|A2 AG A2:|
e2|"Am"abag "Em"egab|"Am"c'd'c'b abag|a2 e2 edef|"Em"gagf ef ge|
"Am"a2 e2 "Em"egab|"Am"c'd'c'b abag|eg ac' "Em"bagb|"Am"a2 ag a3 b|
"Am"c'3 a "Em"b3 g|"Am"agef "Em"g3 a|"Em"gedB "Am"cdef|"Em"gedB "Am"cBAG|
"Am"E2 A2 ABcd|e2 a2 agab|a2 e2 edcB|A2 AG A2|]

